raw/symbols/cvx.svg

<svg xmlns="http://www.w3.org/2000/svg" width="42" height="42" fill="none"><circle cx="21" cy="21" r="20" fill="#F3F3F3"/><path fill="#00DCA0" d="M12 14.5h3V21h-3z"/><path fill="#0082FF" d="M14 12.5h3V19h-3zM18.5 10h3v3h-3zM22.5 13.5h3v3h-3z"/><path fill="#0082FF" d="M24.5 15.5h3v3h-3z"/><path fill="#FEB900" d="M12 21h3v6.5h-3z"/><path fill="#FEB900" d="M14 23h3v6.5h-3z"/><path fill="#FF4852" d="M18.5 28.5h3v3h-3zM22.5 25.5h3v3h-3z"/><path fill="#FF4852" d="M24.5 23.5h3v3h-3z"/><path fill="#030303" d="M29.5 18.5h-4v-2h-2v-2H19v2h-2v9h2v2h4.5v-2h2v-2h4v4h-2v2h-4v2h-4v-2H15v-2h-2v-13h2v-2h4.5V10h4v2.5h4v2h2v4Z"/></svg>

<svg width="42" height="42" viewBox="0 0 42 42" fill="none" xmlns="http://www.w3.org/2000/svg">
<circle cx="21" cy="21" r="20" fill="#F3F3F3"/>
<rect x="12" y="14.5" width="3" height="6.5" fill="#00DCA0"/>
<rect x="14" y="12.5" width="3" height="6.5" fill="#0082FF"/>
<rect x="18.5" y="10" width="3" height="3" fill="#0082FF"/>
<rect x="22.5" y="13.5" width="3" height="3" fill="#0082FF"/>
<rect x="24.5" y="15.5" width="3" height="3" fill="#0082FF"/>
<rect x="12" y="21" width="3" height="6.5" fill="#FEB900"/>
<rect x="14" y="23" width="3" height="6.5" fill="#FEB900"/>
<rect x="18.5" y="28.5" width="3" height="3" fill="#FF4852"/>
<rect x="22.5" y="25.5" width="3" height="3" fill="#FF4852"/>
<rect x="24.5" y="23.5" width="3" height="3" fill="#FF4852"/>
<path d="M29.5 18.5H25.5V16.5H23.5V14.5H19V16.5H17V25.5H19V27.5H23.5V25.5H25.5V23.5H29.5V27.5H27.5V29.5H23.5V31.5H19.5V29.5H15V27.5H13V14.5H15V12.5H19.5V10H23.5V12.5H27.5V14.5H29.5V18.5Z" fill="#030303"/>
</svg>
